resources/svg/hpi.svg

<svg xmlns="http://www.w3.org/2000/svg" viewBox="0 0 24 24" fill="currentColor"><path fill="currentColor" fill-rule="evenodd" d="M15.7928421,15.3333704 C15.9768442,15.3333704 16.1755131,15.1915021 16.2349804,15.0183002 L18.4310048,8.64836276 C18.4908721,8.47529417 18.3902043,8.33315926 18.2063356,8.33315926 L17.2052578,8.33315926 C17.0219225,8.33315926 16.8228536,8.47529417 16.7629863,8.64836276 L14.5570951,15.0183002 C14.4973611,15.1915021 14.5981622,15.3333704 14.7821642,15.3333704 L15.7928421,15.3333704 Z M24.0002667,12 C24.0002667,18.627007 18.6267403,24 12,24 C11.8170646,24 11.6393293,23.9803998 11.4581273,23.9727997 L13.8777542,16.981922 C13.9382882,16.8085868 14.1365571,16.6668519 14.3205591,16.6668519 L16.0003111,16.6668519 C18.6083401,16.6668519 18.632207,15.8021756 18.9066101,15.0079001 C19.5488839,13.1445461 20.6560962,9.93424371 20.8714319,9.30583673 C21.1779686,8.40956011 21.2793031,7.00007778 19.0002111,7.00007778 L15.0000333,7.00007778 C14.816698,7.00007778 14.6177624,7.14194602 14.5570951,7.31528128 L8.92489917,23.5871954 C3.79030878,22.2271803 0,17.5617951 0,12 C0,6.69394104 3.44790498,2.20055778 8.22275803,0.615473505 L2.77589751,16.3513817 C2.71523017,16.5248503 2.81643129,16.6668519 3.00003333,16.6668519 L4.99965555,16.6668519 C5.1836576,16.6668519 5.38232647,16.5248503 5.44272714,16.3513817 L8.1092901,8.64836276 C8.16915744,8.47529417 8.36755964,8.33315926 8.55102834,8.33315926 L9.539706,8.33315926 C9.72330804,8.33315926 9.82410916,8.47529417 9.76424182,8.64836276 L7.10847898,16.3513817 C7.04914499,16.5248503 7.14994611,16.6668519 7.33328148,16.6668519 L9.33357037,16.6668519 C9.51690574,16.6668519 9.71570795,16.5248503 9.77544195,16.3513817 C9.77544195,16.3513817 11.6389293,10.9485217 12.2016022,9.3149035 C12.7649418,7.68155202 12.3125368,7.00007778 10.3462483,7.00007778 L9.01290014,7.00007778 C8.82956477,7.00007778 8.72889699,6.8580762 8.78916432,6.68514095 L11.0862565,0.0464005156 C11.3887932,0.0234669274 11.6913299,0 12,0 C18.6267403,0 24.0002667,5.37299303 24.0002667,12 L24.0002667,12 Z"/></svg>

<svg viewBox="0 0 24 24"><path fill="currentColor" fill-rule="evenodd" d="M15.793 15.333a.5.5 0 0 0 .442-.315l2.196-6.37c.06-.173-.04-.315-.225-.315h-1a.502.502 0 0 0-.443.315l-2.206 6.37c-.06.174.041.315.225.315h1.01zM24 12c0 6.627-5.373 12-12 12c-.183 0-.36-.02-.542-.027l2.42-6.991a.503.503 0 0 1 .443-.315H16c2.607 0 2.631-.865 2.906-1.66c.642-1.862 1.75-5.073 1.964-5.701C21.178 8.41 21.28 7 19.001 7H15a.504.504 0 0 0-.443.315L8.925 23.587C3.79 22.227 0 17.562 0 12C0 6.694 3.448 2.2 8.223.615L2.776 16.351c-.06.174.04.316.224.316h2a.503.503 0 0 0 .443-.316l2.666-7.703a.501.501 0 0 1 .442-.315h.989c.183 0 .284.142.224.315l-2.656 7.703c-.059.174.042.316.225.316h2a.501.501 0 0 0 .442-.316l2.427-7.036C12.765 7.682 12.312 7 10.346 7H9.013c-.183 0-.284-.142-.224-.315L11.086.046C11.39.023 11.691 0 12 0c6.627 0 12 5.373 12 12z"/></svg>
